dist/images/indicadores/inversion.svg

<svg xmlns="http://www.w3.org/2000/svg" viewBox="0 0 83.4 78.99"><path fill="#848689" d="M19.215 21.794h44.993V44.29H55.23v18.062h-4.542v-18.06H32.734v18.06h-4.542v-18.06h-8.978V21.793zm7.182 4.542l-2.746 2.64v6.337l9.084-8.978h-6.337zm5.492 13.52l13.518-13.52H39.07l-13.518 13.52h6.337zm12.78 0l13.518-13.52H51.85l-13.518 13.52h6.337zm12.78 0l2.323-2.325v-6.336l-8.66 8.66h6.336z"/></svg>

<?xml version="1.0" encoding="iso-8859-1"?>
<!-- Generator: Adobe Illustrator 18.0.0, SVG Export Plug-In . SVG Version: 6.00 Build 0)  -->
<!DOCTYPE svg PUBLIC "-//W3C//DTD SVG 1.1//EN" "http://www.w3.org/Graphics/SVG/1.1/DTD/svg11.dtd">
<svg version="1.1" id="Layer_1" xmlns="http://www.w3.org/2000/svg" xmlns:xlink="http://www.w3.org/1999/xlink" x="0px" y="0px"
	 viewBox="0 0 83.4 78.99" enable-background="new 0 0 83.4 78.99" xml:space="preserve">
<path fill="#848689" d="M19.215,21.794h44.993v22.497h-8.978v18.061h-4.542V44.291H32.734v18.061h-4.542V44.291h-8.978V21.794z
	 M26.397,26.336l-2.746,2.64v6.337l9.083-8.978H26.397z M31.889,39.855l13.519-13.519h-6.337L25.552,39.855H31.889z M44.669,39.855
	l13.519-13.519h-6.337L38.332,39.855H44.669z M57.449,39.855l2.324-2.324v-6.337l-8.661,8.661H57.449z"/>
</svg>
